_includes/icons/color-apple-pay.svg

<svg fill="#666" height="50" viewBox="0 0 48 48" width="50" xmlns="http://www.w3.org/2000/svg"><g fill="#4b4b4b"><path d="m8.653 17.61c-.559.684-1.453 1.224-2.348 1.146-.111-.924.327-1.908.84-2.514.558-.703 1.536-1.204 2.328-1.242.093.963-.27 1.907-.82 2.61"/><path d="m9.369 19.235c-1.304 0-2.237.706-2.846.706-.619 0-1.542-.697-2.609-.697-1.304 0-2.581.812-3.255 1.996-1.384 2.367-.36 5.872.978 7.799.656.954 1.447 1.961 2.514 1.961.978-.037 1.309-.588 2.49-.588 1.19 0 1.542.588 2.609.588s1.714-.97 2.369-1.925c.748-1.082 1.052-2.138 1.07-2.193-.018-.018-2.066-.798-2.085-3.147-.018-1.963 1.615-2.9 1.689-2.955-.923-1.357-2.45-1.546-2.805-1.546h-.119z"/><path d="m22.688 17h-5.438v13.999h2.265v-4.666h3.099c2.844 0 4.887-1.937 4.887-4.666s-2.006-4.667-4.813-4.667zm-.551 7.466h-2.622v-5.6h2.622c1.952 0 3.099 1.031 3.099 2.8s-1.138 2.8-3.099 2.8z"/><path d="m32.752 20.5c-2.39 0-4.156 1.324-4.222 3.144h2.027c.167-.865.995-1.432 2.13-1.432 1.376 0 2.154.621 2.154 1.766l.001.79-2.814.147c-2.614.153-4.028 1.19-4.028 2.992 0 1.82 1.46 3.028 3.552 3.028 1.413 0 2.725-.693 3.319-1.793h.046v1.685h2.083v-6.992c.001-2.029-1.673-3.335-4.248-3.335zm2.082 6.514c0 1.316-1.153 2.253-2.678 2.253-1.199 0-1.962-.559-1.962-1.414 0-.883.734-1.396 2.139-1.478l2.508-.184z"/><path d="m45.691 20.5-2.675 8.588h-.046l-2.676-8.588h-2.374l3.848 10.584-.206.644c-.348 1.091-.91 1.511-1.914 1.511-.172 0-.497-.017-.647-.036v1.745c.151.034.679.052.843.052 2.215 0 3.256-.839 4.167-3.385l3.989-11.115z"/></g></svg>

<svg xmlns="http://www.w3.org/2000/svg" viewBox="0 0 48 48" width="50" height="50" fill="#666"><path d="M8.653,17.61c-0.559,0.684-1.453,1.224-2.348,1.146c-0.111-0.924,0.327-1.908,0.84-2.514 C7.703,15.539,8.681,15.038,9.473,15C9.566,15.963,9.203,16.907,8.653,17.61" fill="#4b4b4b"/><path d="M9.369,19.235c-1.304,0-2.237,0.706-2.846,0.706c-0.619,0-1.542-0.697-2.609-0.697 c-1.304,0-2.581,0.812-3.255,1.996c-1.384,2.367-0.36,5.872,0.978,7.799C2.293,29.993,3.084,31,4.151,31 c0.978-0.037,1.309-0.588,2.49-0.588C7.831,30.412,8.183,31,9.25,31s1.714-0.97,2.369-1.925c0.748-1.082,1.052-2.138,1.07-2.193 c-0.018-0.018-2.066-0.798-2.085-3.147c-0.018-1.963,1.615-2.9,1.689-2.955c-0.923-1.357-2.45-1.546-2.805-1.546H9.369z" fill="#4b4b4b"/><path d="M22.688,17H17.25v13.999h2.265v-4.666h3.099c2.844,0,4.887-1.937,4.887-4.666S25.495,17,22.688,17z M22.137,24.466h-2.622v-5.6h2.622c1.952,0,3.099,1.031,3.099,2.8S24.098,24.466,22.137,24.466z" fill="#4b4b4b"/><path d="M32.752,20.5c-2.39,0-4.156,1.324-4.222,3.144h2.027c0.167-0.865,0.995-1.432,2.13-1.432 c1.376,0,2.154,0.621,2.154,1.766l0.001,0.79l-2.814,0.147C29.414,25.068,28,26.105,28,27.907c0,1.82,1.46,3.028,3.552,3.028 c1.413,0,2.725-0.693,3.319-1.793h0.046v1.685H37v-6.992C37.001,21.806,35.327,20.5,32.752,20.5z M34.834,27.014 c0,1.316-1.153,2.253-2.678,2.253c-1.199,0-1.962-0.559-1.962-1.414c0-0.883,0.734-1.396,2.139-1.478l2.508-0.184L34.834,27.014z" fill="#4b4b4b"/><path d="M45.691,20.5l-2.675,8.588H42.97L40.294,20.5H37.92l3.848,10.584l-0.206,0.644 c-0.348,1.091-0.91,1.511-1.914,1.511c-0.172,0-0.497-0.017-0.647-0.036v1.745C39.152,34.982,39.68,35,39.844,35 c2.215,0,3.256-0.839,4.167-3.385L48,20.5H45.691z" fill="#4b4b4b"/></svg>
